X:1
T:Veni, dilecte mi
T:Johannes de Lymburgia
T:Veni, dilecte mi
C:Johannes de Lymburgia
%%score [ 1 [ 2 3 ] ]
L:1/8
Q:1/4=80
M:3/4
K:C
V:1 treble nm="Soprano" snm="S"
V:2 treble-8 nm="Tenor 1" snm="T 1"
V:3 treble-8 nm="Tenor 2" snm="T 2"
V:1
 G2 G2 G2 | B2 G2 AB | c2 c2 c2 | B2 A4 | G3 A ^FE/F/ | G6 | z6 | A4 A2 | A2 A2 GF- | FE D3 E | %10
w: Ve- ni, di-|le- * * *|cte mi, ap-|pre- hen-|dam _ _ _ _|te||et in-|du- cam te _|_ _ in _|
 F2 G2 E2 | z2 z2 F2 | E2 D4 | C2 z D ^CB, | D6 | z A2 B GF | A6 | F2 F2 F2 | AA B2 GF | A2 z2 z2 | %20
w: do- * mus|pa-|tris me-||i,|me- * * *|i,|et in cu-|bi- cu- lum _ _|_|
 A2 A2 A2 | BG c B2 A | c3 B AG | F3 G FE | G4 z2 | B4 B2 | c2 d B2 c | Ac BA G2- | GE F3 G | %29
w: ge- ni- tri-|cis _ _ _ _|me- * * *||ae:|i- bi|me do- * *|ce- * * * *||
 E4 z2 | D2 D2 F2 | G2 F D2 C- | CB, D2 z D | A2 c2 BG- | GE D2 z2 | EF DG FE | G4 A2 | B c2 B A2 | %38
w: bis|prae- cep- ta|Do- mi- * *|* * ni re-|* * cta, _|_ _ _|lae- * * * * *||ti- * * fi-|
 G2 FD E2 | ^F4 F2 | G6 |] %41
w: can- * * *|ti- a|cor.|
V:2
 d2 B2 A2 | G4 D2 | A4 A2 | B2 e3 c | d4 c2 | d2 B2 G2 | D4 D2 | A2 F3 E | D2 z2 G2 | D2 d2 B2 | %10
w: Ve- * ni,|_ di-|le- cte|mi, _ ap-|* pre-|hen- * dam|te et|in- * du-|cam te|_ _ in|
 A2 G2 C2 | c2 G2 D2 | z2 B2 A2 | G2 ED G2 | A2 D2 z B | A2 FD G2 | D4 A2 | c4 A2 | D2 E2 G2 | D6 | %20
w: do- * mus|pa- * tris|me- *||i, _ me-||i, et|in cu-|bi- * cu-|lum|
 A4 A2 | G2 z G2 G | A2 FG C2 | c2 d2 D2 | z d2 d B2 | G4 E2 | A2 z B2 B | cA GD G2 | E2 D2 FE | %29
w: _ ge-|ni- tri- cis|me- * * *|* * ae:|i- bi me|do- ce-|bis do- ce-|||
 C4 z2 | G4 c2 | B2 A2 DF | G2 A2 A2 | A4 GE | G2 D4 | c2 d2 D2 | d3 B A2 | G2 z2 F2 | G4 C2 | c6 | %40
w: bis|prae- cep-|ta _ Do- *|* mi- ni|re- cta, _|_ _|lae- * ti-|fi- * *|* can-|* ti-|a|
 d6 |] %41
w: cor.|
V:3
 G2 G2 c2 | d2 e2 d2 | c4 c2 | G2 c4 | B3 G A2 | G4 z2 | A4 A2 | c4 c2 | d3 c B2 | A2 BG G2 | %10
w: Ve- ni, di-|le- * cte|mi, ap-|pre- hen-|dam _ _|te|et in-|du- cam|te _ _|_ _ _ _|
 F2 z2 c2 | A2 B2 A2 | G4 FD | E2 GF E2 | D2 z2 G2 | A c2 d B2 | A4 z2 | A2 A2 F2 | FF G2 B2 | A6 | %20
w: * in|do- mus pa-|tris me- *||i, me-||i,|et in cu-|bi- cu- lum _|_|
 c2 c2 c2 | de e2 d2 | c2 z2 c2 | A2 B2 A2 | G6 | d4 e2 | c2 G2 d2 | c2 d2 B2 | G2 A3 G | c4 z2 | %30
w: ge- ni- tri-|cis _ _ _|_ me-||ae:|i- bi|me _ do-|ce- * *||bis|
 B2 B2 A2 | G2 D2 F2 | E2 D4 | z F2 F G2 | Bc d4 | A2 B2 A2 | G4 c2 | de d2 c2 | B4 c2 | A4 A2 | %40
w: prae- cep- ta|Do- * *|mi- ni|re- cta, _|_ _ _|lae- * ti-|fi- *|* * can- *||ti- a|
 G6 |] %41
w: cor.|

